icons/b_folder.svg

<svg xmlns="http://www.w3.org/2000/svg"  viewBox="0 0 48 48" width="50px" height="50px"><path d="M 8.5 8 C 6.0324991 8 4 10.032499 4 12.5 L 4 35.5 C 4 37.967501 6.0324991 40 8.5 40 L 39.5 40 C 41.967501 40 44 37.967501 44 35.5 L 44 17.5 C 44 15.032499 41.967501 13 39.5 13 L 24.042969 13 L 19.572266 9.2753906 C 18.584055 8.4521105 17.339162 8 16.052734 8 L 8.5 8 z M 8.5 11 L 16.052734 11 C 16.638307 11 17.202555 11.205358 17.652344 11.580078 L 21.15625 14.5 L 17.652344 17.419922 C 17.202555 17.794642 16.638307 18 16.052734 18 L 7 18 L 7 12.5 C 7 11.653501 7.6535009 11 8.5 11 z M 24.042969 16 L 39.5 16 C 40.346499 16 41 16.653501 41 17.5 L 41 35.5 C 41 36.346499 40.346499 37 39.5 37 L 8.5 37 C 7.6535009 37 7 36.346499 7 35.5 L 7 21 L 16.052734 21 C 17.339162 21 18.584055 20.547889 19.572266 19.724609 L 24.042969 16 z"/></svg>

<svg xmlns="http://www.w3.org/2000/svg" xmlns:xlink="http://www.w3.org/1999/xlink" viewBox="0,0,256,256" width="50px" height="50px" fill-rule="nonzero"><g fill="#1d2126" fill-rule="nonzero" stroke="none" stroke-width="1" stroke-linecap="butt" stroke-linejoin="miter" stroke-miterlimit="10" stroke-dasharray="" stroke-dashoffset="0" font-family="none" font-weight="none" font-size="none" text-anchor="none" style="mix-blend-mode: normal"><g transform="scale(5.33333,5.33333)"><path d="M8.5,8c-2.4675,0 -4.5,2.0325 -4.5,4.5v23c0,2.4675 2.0325,4.5 4.5,4.5h31c2.4675,0 4.5,-2.0325 4.5,-4.5v-18c0,-2.4675 -2.0325,-4.5 -4.5,-4.5h-15.45703l-4.4707,-3.72461c-0.98821,-0.82328 -2.2331,-1.27539 -3.51953,-1.27539zM8.5,11h7.55273c0.58557,0 1.14982,0.20536 1.59961,0.58008l3.50391,2.91992l-3.50391,2.91992c-0.44979,0.37472 -1.01404,0.58008 -1.59961,0.58008h-9.05273v-5.5c0,-0.8465 0.6535,-1.5 1.5,-1.5zM24.04297,16h15.45703c0.8465,0 1.5,0.6535 1.5,1.5v18c0,0.8465 -0.6535,1.5 -1.5,1.5h-31c-0.8465,0 -1.5,-0.6535 -1.5,-1.5v-14.5h9.05273c1.28643,0 2.53132,-0.45211 3.51953,-1.27539z"></path></g></g></svg>
